static/images/fradgify_tight.svg

<?xml version="1.0" encoding="UTF-8" standalone="no"?>
<svg
   width="955.44977"
   height="230"
   version="1.1"
   id="svg6"
   sodipodi:docname="fradgify_tight_2.svg"
   inkscape:version="1.4 (86a8ad7, 2024-10-11)"
   xmlns:inkscape="http://www.inkscape.org/namespaces/inkscape"
   xmlns:sodipodi="http://sodipodi.sourceforge.net/DTD/sodipodi-0.dtd"
   xmlns="http://www.w3.org/2000/svg"
   xmlns:svg="http://www.w3.org/2000/svg">
  <defs
     id="defs6" />
  <sodipodi:namedview
     id="namedview6"
     pagecolor="#ffffff"
     bordercolor="#000000"
     borderopacity="0.25"
     inkscape:showpageshadow="2"
     inkscape:pageopacity="0.0"
     inkscape:pagecheckerboard="0"
     inkscape:deskcolor="#d1d1d1"
     inkscape:zoom="1.3374032"
     inkscape:cx="578.3596"
     inkscape:cy="269.55221"
     inkscape:window-width="1920"
     inkscape:window-height="1017"
     inkscape:window-x="1912"
     inkscape:window-y="-8"
     inkscape:window-maximized="1"
     inkscape:current-layer="svg6"
     showguides="true" />
  <path
     style="fill:#a354b6;stroke:none"
     d="M 0,0 V 230 H 231 V 0 Z"
     id="path1" />
  <path
     style="fill:#fffeff;stroke:none"
     d="M 231,0 V 230 H 955.44979 V 0 H 231 M 92,64 c 4.3598,-0.7471 5.7599,-3.9363 9.043,-6.6073 3.8,-3.0907 9.076,-4.7658 13.957,-4.8179 4.808,-0.0513 10.111,0.856 13.985,3.8442 3.648,2.8147 5.258,6.7659 10.015,7.581 -0.008,-11.5291 -4.517,-19.0323 -15,-24.3943 -2.702,-1.3819 -5.873,-3.1673 -9,-3.0139 C 100.903,37.2834 92.0083,51.5385 92,64 M 77,49 c 3.2676,1.8077 6.5366,3.6151 10,5 1.7756,-3.6362 3.7814,-7.1423 5,-11 -7.1342,-3.0222 -12.6363,-1.8861 -15,6 m 67,6 c 2.507,-1.3121 9.447,-3.3069 10.168,-6.3017 1.528,-6.3411 -10.17,-9.9712 -13.008,-4.2793 -1.446,2.9014 2.003,7.7299 2.84,10.581 z"
     id="path2"
     sodipodi:nodetypes="cccccccsccccccccccccc" />
  <path
     style="fill:#a354b6;stroke:none"
     d="m 354,45 v 148 c 4.537,0 13.771,1.744 17.258,-1.742 C 374.736,187.78 373,178.502 373,174 c 0,-15.926 0.997,-32.197 -1,-48 2.48,0.009 5.517,-0.345 7.725,1.028 2.628,1.634 3.698,5.283 4.854,7.972 2.307,5.368 4.765,10.684 7.19,16 4.093,8.971 8.079,17.995 12.092,27 1.955,4.385 4.008,10.24 8.244,12.91 5.292,3.336 14.783,3.039 20.895,3.09 -1.433,-8.04 -6.608,-15.609 -10,-23 -6.894,-15.02 -13.671,-30.73 -22,-45 22.043,-3.319 18.006,-35.698 18,-52 -0.003,-7.2083 -0.741,-15.793 -5.638,-21.5602 C 399.776,36.4391 371.821,44.6322 354,45 m 184,0 v 149 c 6.633,0 13.382,-0.364 20,0.09 13.766,0.942 31.478,3.564 42.79,-6.619 8.3,-7.472 9.957,-19.113 11.621,-29.471 2.028,-12.629 1.589,-25.243 1.589,-38 0,-13.453 0.304,-26.6628 -1.576,-40 C 610.789,68.3939 609.695,58.3717 599.999,50.4676 583.472,36.9946 557.458,45 538,45 m 170,147 v -77 c -4.54,0 -12.822,-1.566 -16.436,1.742 C 687.881,120.114 689,127.547 689,132 c 0,13.053 -3.125,30.854 2,43 -8.23,0.353 -17.864,4.402 -24.957,-1.394 -7.236,-5.913 -7.03,-14.274 -8.708,-22.606 -3.807,-18.903 -1.827,-40.86 -0.424,-60 0.599,-8.1676 0.985,-17.3379 6.479,-23.9568 7.428,-8.9472 15.983,-3.29 25.61,-3.0579 6.283,0.1515 11.398,-0.2752 13.556,-7 C 703.396,54.3681 703.778,51.7236 704,49 686.403,47.5996 668.048,37.1643 652,49.5293 641.942,57.2794 640.315,67.228 638.573,79 636.602,92.3158 637,105.55 637,119 c 0,13.051 -0.488,26.059 1.427,39 1.577,10.651 3.745,23.227 12.666,30.443 15.822,12.797 38.994,3.705 56.907,3.557 M 273,45 v 105 28 c 0,3.829 -0.738,9.166 1.434,12.566 2.865,4.488 13.948,2.434 18.566,2.434 v -43 c 0,-8.977 0.644,-18.145 -1,-27 h 41 v -18 h -41 c 1.736,-13.7328 1.736,-28.2672 0,-42 h 43 V 45 h -62 m 185,148 c 0.679,-15.803 5.896,-31.372 8,-47 h 26 c 1.371,10.79 4.459,21.252 6.001,32 0.619,4.319 1.352,11.215 5.393,13.821 4.485,2.894 13.447,1.179 18.606,1.179 -4.141,-20.073 -9.399,-39.909 -13.449,-60 -2.701,-13.397 -6.449,-26.594 -9.151,-40 -1.487,-7.376 -3.491,-14.6277 -5.001,-22 -1.231,-6.0098 -2.665,-12.0213 -4.05,-18 -0.524,-2.2597 -0.9,-5.4851 -2.913,-6.9722 C 485.054,44.2677 480.775,44.9989 478,45 c -3.054,0.0012 -7.658,-0.7827 -9.487,2.3179 -4.216,7.1467 -4.384,18.659 -6.386,26.6821 -5.872,23.5234 -10.574,47.369 -16.008,71 -2.371,10.312 -4.647,20.623 -6.719,31 -0.819,4.101 -2.569,9.788 -0.797,13.852 C 440.964,195.264 453.178,193 458,193 M 731,45 v 106 28 c 0,3.513 -0.75,8.479 1.318,11.566 C 735.237,194.924 745.449,193 750,193 V 91 62 c 0,-3.7775 0.98,-9.2536 -0.603,-12.7716 C 746.9,43.6792 735.911,45 731,45 m 44,0 v 106 28 c 0,3.535 -0.736,8.454 1.318,11.57 3.321,5.038 13.555,3.43 18.682,3.43 v -46 c 0,-8.21 1.246,-17.307 -2,-25 h 42 v -18 h -42 c 2.505,-7.902 2,-15.7913 2,-24 0,-6.2162 0.457,-12.177 -2,-18 h 44 V 45 h -62 m 73,1 c 4.548,19.6502 14.246,39.1455 21.424,58 2.447,6.426 6.331,13.159 7.363,20 2.264,15.003 0.213,31.822 0.213,47 0,5.385 -1.576,13.808 0.742,18.772 2.484,5.316 13.476,3.228 18.258,3.228 v -47 c 0,-7.614 -1.286,-16.589 0.61,-24 4.413,-17.251 13.21,-34.2885 19.44,-51 2.893,-7.7603 6.567,-15.6267 6.95,-24 -6.001,-1.1142 -11.917,-1 -18,-1 -1.493,6.4551 -3.906,12.717 -6,19 -2.778,8.3328 -5.502,16.6857 -8.334,25 -0.603,1.7708 -1.732,6.928 -4.497,6.3688 -2.036,-0.4117 -2.778,-3.7655 -3.382,-5.3696 -1.853,-4.923 -3.141,-10.009 -4.788,-14.9992 -2.306,-6.9876 -4.247,-14.2409 -7.156,-21 -1.208,-2.8073 -2.426,-6.1488 -5.172,-7.821 C 861.206,44.4604 853.056,46 848,46 Z"
     id="path3" />
  <path
     style="fill:#fffeff;stroke:none"
     d="M 55,54 C 53.0523,64.4913 53.0028,81.3776 64,87 68.4781,73.8826 73.6736,68.2627 87,64 81.0447,51.3437 66.4341,53.5091 55,54 m 89,11 c 13.775,0.707 19.026,10.3597 23,22 12.656,-5.9553 10.491,-20.5659 10,-32 -9.178,-1.7039 -30.909,-2.3598 -33,10 m -41,27 c 9.464,-3.49 -1.496,-16.359 3.742,-23.8912 4.371,-6.2838 15.639,-5.3324 18.516,1.9097 C 127.922,76.7253 123.974,84.3787 123,91 l 5,1 c 1.695,-8.2164 6.027,-20.1146 1.142,-27.9807 -5.415,-8.72 -23.197,-8.238 -27.963,0.9961 C 97.2012,72.722 101.384,84.1649 103,92 M 372,61 c 1.226,15.5393 1.961,31.481 0,47 6.557,0 17.419,2.058 22.772,-2.514 7.013,-5.9896 4.593,-23.2339 4.188,-31.486 -0.164,-3.3366 -0.793,-6.9774 -3.379,-9.3472 C 389.903,59.4501 379.047,61 372,61 m 184,0 c 4.097,15.486 2,33.0232 2,49 0,21.751 2.851,45.779 -2,67 9.168,0 23.637,2.804 30.786,-4.225 6.459,-6.349 6.662,-17.337 7.239,-25.775 1.32,-19.328 2.439,-39.701 0.13,-59 C 593.23,80.2677 592.709,71.0248 586.787,65.2245 579.618,58.2027 565.183,61 556,61 m -443.682,9.0316 c -4.14,2.6876 -1.875,10.3338 -0.438,13.9491 0.699,1.7569 2.191,5.158 4.676,3.8434 3.772,-1.9958 5.44,-11.9991 3.84,-15.5957 -1.282,-2.8808 -5.46,-3.8963 -8.078,-2.1968 M 70,94 h 6 C 76.2384,82.8086 83.1071,76.4752 94,75 V 70 C 84.3947,70.0011 74.1773,71.2418 70.804,82 69.6079,85.8146 70,90.055 70,94 m 67,-24 v 5 c 10.884,2.118 17.75,7.2792 18,19 h 6 c 0,-3.96 0.363,-8.1624 -0.8,-11.9992 C 157.002,71.45 146.453,70.001 137,70 M 44,91 55,87 C 53.5075,83.2614 51.636,80.0239 51,76 41.9745,77.0058 39.8787,83.6338 44,91 M 182,77 c -1.891,3.2397 -3.558,6.5368 -5,10 2.591,1.2649 6.858,4.4673 9.852,3.554 4.053,-1.2363 3.481,-7.6237 1.407,-10.2508 C 186.697,78.3242 184.283,77.722 182,77 M 81,95 c 3.8896,0.805 13.2276,5.368 16.3032,1.5918 C 100.119,93.135 95.5497,84.0786 95,80 85.9852,81.2209 81.2179,85.732 81,95 m 69,0 c -0.05,-2.3464 -0.054,-4.7046 -0.804,-6.9614 -0.533,-1.6049 -1.333,-3.0551 -2.615,-4.1844 C 139.892,77.96 135.839,82.4806 133.965,89 c -0.892,3.1028 -2.493,8.0743 2.097,9.0679 C 140.081,98.9377 145.857,95.5606 150,95 M 477,83 c -1.18,14.823 -6.097,29.267 -8,44 h 20 c -2.982,-14.445 -7.829,-29.2888 -9,-44 h -3 M 64,139 C 63.0931,133.635 57.9594,131.614 55.4174,126.996 49.6035,116.435 52.9582,100.096 65,96 v -4 c -3.6315,4e-4 -7.5073,-0.3271 -11,0.8542 C 46.157,95.5069 37.127,106.497 36.6026,115 c -0.192,3.113 1.6287,6.315 3.0031,9 5.3305,10.415 13.0042,14.992 24.3943,15 M 166,96 c 19.248,6.548 13.647,31.321 0,40 6.064,8.409 18.089,-1.253 22.211,-7 2.485,-3.464 5.875,-8.637 6.189,-13 0.44,-6.12 -5.167,-13.662 -9.158,-17.7901 C 181.105,93.9297 168.813,87.5235 166,96 M 110,95.5324 C 84.0206,101.72 95.295,142.279 121,135.387 146.833,128.46 135.87,89.3709 110,95.5324 M 92,128 91,123 c -6.6775,0.899 -15.4499,5.285 -21.956,1.821 C 60.9471,120.51 62.2676,108.11 71.0039,105.573 77.8635,103.58 84.3144,107.334 91,108 l 1,-5 c -7.9322,-1.814 -19.1569,-5.7811 -26.9954,-1.682 -9.5718,5.005 -9.8441,23.414 0.0108,28.364 C 73.2782,133.832 83.7051,129.405 92,128 m 47,-25 1,5 c 6.253,-0.843 12.608,-4.071 18.999,-2.606 9.101,2.088 11.574,14.555 2.957,19.149 C 155.019,128.242 147.028,124.034 140,123 l -1,4 c 7.572,3.801 21.472,7.051 28.892,1.347 7.818,-6.009 7.15,-22.486 -1.907,-27.029 C 157.837,97.2311 147.178,101.307 139,103 Z"
     id="path4" />
  <path
     style="fill:#a354b6;stroke:none"
     d="m 114,104.707 c -13.951,1.871 -10.723,23.829 3,21.666 13.958,-2.201 10.951,-23.538 -3,-21.666 z"
     id="path5" />
  <path
     style="fill:#fffeff;stroke:none"
     d="m 72.1481,110.743 c -3.9236,1.753 -3.9657,7.773 0,9.511 3.6374,1.594 10.3503,-0.08 13.6991,-1.905 2.8744,-1.567 2.7642,-4.161 0,-5.781 -3.4115,-1.999 -9.9439,-3.502 -13.6991,-1.825 m 41.0799,0.015 c -6.128,2.645 -1.747,12.201 4.544,9.484 6.128,-2.645 1.747,-12.201 -4.544,-9.484 M 142,114 c 1.783,5.52 13.673,9.893 18.397,5.258 2.504,-2.459 1.65,-7.277 -1.545,-8.654 -2.661,-1.147 -6.17,-0.372 -8.852,0.299 -2.815,0.704 -5.383,1.874 -8,3.097 m -61,22 c 0.085,9.393 4.6074,13.915 14,14 0.814,-3.933 5.521,-13.255 1.642,-16.303 C 93.1724,130.97 84.8927,135.194 81,136 m 55,14 c 9.322,-0.104 13.916,-4.726 14,-14 -4.052,-0.598 -13.18,-5.617 -16.303,-1.642 -2.805,3.569 1.707,11.605 2.303,15.642 M 70,137 c 0.0061,9.266 1.6553,20.103 12,23.347 3.7495,1.176 8.1184,0.653 12,0.653 v -6 C 82.34,154.894 77.0957,147.77 75,137 h -5 m 85,0 c -0.234,10.993 -7.041,17.902 -18,19 v 5 c 9.446,-0.006 19.898,-1.485 23.196,-12 1.196,-3.814 0.804,-8.055 0.804,-12 h -6 m -111,2 c -1.8208,2.534 -3.2286,4.703 -2.5864,7.985 0.6678,3.412 4.2656,7.377 7.9529,4.972 C 51.8674,150.326 53.0371,146.643 54,144 l -10,-5 m 59,0 c -2.229,7.912 -5.9856,20.314 -1.142,27.956 5.512,8.697 23.115,8.404 27.824,-0.971 4.09,-8.143 0.01,-18.81 -1.682,-26.985 l -5,1 c 1.027,6.955 5.441,15.057 1.682,21.957 -4.267,7.834 -16.768,6.857 -19.248,-1.972 C 103.523,153.184 107.028,146.58 108,140 l -5,-1 m 73,5 c 1.175,2.743 2.801,8.346 5.549,9.863 6.165,3.405 12.22,-11.071 4.262,-12.847 -3,-0.669 -7.019,2.019 -9.811,2.984 m -62,-3 c -1.687,5.175 -6.35,13.4 -2.821,18.682 2.468,3.694 8.224,2.153 9.383,-1.791 C 122.136,152.542 118.625,145.994 117,141 h -3 m -27,25 c -12.1114,-0.285 -21.3831,-9.981 -22,-22 -8.9411,2.517 -12.2853,13.457 -11.8958,22 0.1281,2.811 0.4569,7.085 2.6342,9.142 2.3212,2.193 6.3246,1.856 9.2616,1.856 7.9296,0 19.4687,-2.393 22,-10.998 m 80,-22 c -4.384,12.841 -9.638,19.133 -23,23 6.611,12.629 20.112,10.51 32,10 1.961,-10.562 2.248,-27.468 -9,-33 m -75,22 c 4e-4,3.631 -0.3271,7.507 0.8542,11 2.6791,7.921 13.5178,16.995 22.1458,17.408 3.198,0.153 6.253,-1.759 9,-3.165 10.439,-5.343 14.992,-12.77 15,-24.243 -5.253,0.9 -7.426,6.081 -12.001,8.583 -10.7,5.852 -26.778,2.825 -30.999,-9.583 h -4 m -6,10 c -3.1892,2.269 -6.2349,3.913 -10,5 0.7066,2.913 1.4323,5.904 4.2245,7.539 2.9277,1.715 9.0296,1.336 9.8982,-2.753 C 90.787,182.659 87.7803,178.343 86,176 m 58,1 c -1.27,2.602 -4.368,6.719 -3.84,9.721 0.68,3.86 7.193,3.545 9.696,2.099 2.881,-1.664 3.491,-4.835 4.144,-7.82 -3.574,-0.818 -6.64,-2.561 -10,-4 z"
     id="path6" />
</svg>

<?xml version="1.0" standalone="yes"?>
<svg xmlns="http://www.w3.org/2000/svg" width="939" height="230">
<path style="fill:#a354b6; stroke:none;" d="M0 0L0 230L231 230L231 0L0 0z"/>
<path style="fill:#fffeff; stroke:none;" d="M231 0L231 230L939 230L939 0L231 0M92 64C96.3598 63.2529 97.7599 60.0637 101.043 57.3927C104.843 54.302 110.119 52.6269 115 52.5748C119.808 52.5235 125.111 53.4308 128.985 56.419C132.633 59.2337 134.243 63.1849 139 64C138.992 52.4709 134.483 44.9677 124 39.6057C121.298 38.2238 118.127 36.4384 115 36.5918C100.903 37.2834 92.0083 51.5385 92 64M77 49C80.2676 50.8077 83.5366 52.6151 87 54C88.7756 50.3638 90.7814 46.8577 92 43C84.8658 39.9778 79.3637 41.1139 77 49M144 55C146.507 53.6879 153.447 51.6931 154.168 48.6983C155.696 42.3572 143.998 38.7271 141.16 44.419C139.714 47.3204 143.163 52.1489 144 55z"/>
<path style="fill:#a354b6; stroke:none;" d="M354 45L354 193C358.537 193 367.771 194.744 371.258 191.258C374.736 187.78 373 178.502 373 174C373 158.074 373.997 141.803 372 126C374.48 126.009 377.517 125.655 379.725 127.028C382.353 128.662 383.423 132.311 384.579 135C386.886 140.368 389.344 145.684 391.769 151C395.862 159.971 399.848 168.995 403.861 178C405.816 182.385 407.869 188.24 412.105 190.91C417.397 194.246 426.888 193.949 433 194C431.567 185.96 426.392 178.391 423 171C416.106 155.98 409.329 140.27 401 126C423.043 122.681 419.006 90.302 419 74C418.997 66.7917 418.259 58.207 413.362 52.4398C399.776 36.4391 371.821 44.6322 354 45M538 45L538 194C544.633 194 551.382 193.636 558 194.09C571.766 195.032 589.478 197.654 600.79 187.471C609.09 179.999 610.747 168.358 612.411 158C614.439 145.371 614 132.757 614 120C614 106.547 614.304 93.3372 612.424 80C610.789 68.3939 609.695 58.3717 599.999 50.4676C583.472 36.9946 557.458 45 538 45M708 192L708 115C703.46 115 695.178 113.434 691.564 116.742C687.881 120.114 689 127.547 689 132C689 145.053 685.875 162.854 691 175C682.77 175.353 673.136 179.402 666.043 173.606C658.807 167.693 659.013 159.332 657.335 151C653.528 132.097 655.508 110.14 656.911 91C657.51 82.8324 657.896 73.6621 663.39 67.0432C670.818 58.096 679.373 63.7532 689 63.9853C695.283 64.1368 700.398 63.7101 702.556 56.9853C703.396 54.3681 703.778 51.7236 704 49C686.403 47.5996 668.048 37.1643 652 49.5293C641.942 57.2794 640.315 67.228 638.573 79C636.602 92.3158 637 105.55 637 119C637 132.051 636.512 145.059 638.427 158C640.004 168.651 642.172 181.227 651.093 188.443C666.915 201.24 690.087 192.148 708 192M273 45L273 150L273 178C273 181.829 272.262 187.166 274.434 190.566C277.299 195.054 288.382 193 293 193L293 150C293 141.023 293.644 131.855 292 123L333 123L333 105L292 105C293.736 91.2672 293.736 76.7328 292 63L335 63L335 45L273 45M458 193C458.679 177.197 463.896 161.628 466 146L492 146C493.371 156.79 496.459 167.252 498.001 178C498.62 182.319 499.353 189.215 503.394 191.821C507.879 194.715 516.841 193 522 193C517.859 172.927 512.601 153.091 508.551 133C505.85 119.603 502.102 106.406 499.4 93C497.913 85.624 495.909 78.3723 494.399 71C493.168 64.9902 491.734 58.9787 490.349 53C489.825 50.7403 489.449 47.5149 487.436 46.0278C485.054 44.2677 480.775 44.9989 478 45C474.946 45.0012 470.342 44.2173 468.513 47.3179C464.297 54.4646 464.129 65.9769 462.127 74C456.255 97.5234 451.553 121.369 446.119 145C443.748 155.312 441.472 165.623 439.4 176C438.581 180.101 436.831 185.788 438.603 189.852C440.964 195.264 453.178 193 458 193M731 45L731 151L731 179C731 182.513 730.25 187.479 732.318 190.566C735.237 194.924 745.449 193 750 193L750 91L750 62C750 58.2225 750.98 52.7464 749.397 49.2284C746.9 43.6792 735.911 45 731 45M775 45L775 151L775 179C775 182.535 774.264 187.454 776.318 190.57C779.639 195.608 789.873 194 795 194L795 148C795 139.79 796.246 130.693 793 123L835 123L835 105L793 105C795.505 97.098 795 89.2087 795 81C795 74.7838 795.457 68.823 793 63L837 63L837 45L775 45M848 46C852.548 65.6502 862.246 85.1455 869.424 104C871.871 110.426 875.755 117.159 876.787 124C879.051 139.003 877 155.822 877 171C877 176.385 875.424 184.808 877.742 189.772C880.226 195.088 891.218 193 896 193L896 146C896 138.386 894.714 129.411 896.61 122C901.023 104.749 909.82 87.7115 916.05 71C918.943 63.2397 922.617 55.3733 923 47C916.999 45.8858 911.083 46 905 46C903.507 52.4551 901.094 58.717 899 65C896.222 73.3328 893.498 81.6857 890.666 90C890.063 91.7708 888.934 96.928 886.169 96.3688C884.133 95.9571 883.391 92.6033 882.787 90.9992C880.934 86.0762 879.646 80.9902 877.999 76C875.693 69.0124 873.752 61.7591 870.843 55C869.635 52.1927 868.417 48.8512 865.671 47.179C861.206 44.4604 853.056 46 848 46z"/>
<path style="fill:#fffeff; stroke:none;" d="M55 54C53.0523 64.4913 53.0028 81.3776 64 87C68.4781 73.8826 73.6736 68.2627 87 64C81.0447 51.3437 66.4341 53.5091 55 54M144 65C157.775 65.707 163.026 75.3597 167 87C179.656 81.0447 177.491 66.4341 177 55C167.822 53.2961 146.091 52.6402 144 65M103 92C112.464 88.51 101.504 75.641 106.742 68.1088C111.113 61.825 122.381 62.7764 125.258 70.0185C127.922 76.7253 123.974 84.3787 123 91L128 92C129.695 83.7836 134.027 71.8854 129.142 64.0193C123.727 55.2993 105.945 55.7813 101.179 65.0154C97.2012 72.722 101.384 84.1649 103 92M372 61C373.226 76.5393 373.961 92.481 372 108C378.557 108 389.419 110.058 394.772 105.486C401.785 99.4964 399.365 82.2521 398.96 74C398.796 70.6634 398.167 67.0226 395.581 64.6528C389.903 59.4501 379.047 61 372 61M556 61C560.097 76.486 558 94.0232 558 110C558 131.751 560.851 155.779 556 177C565.168 177 579.637 179.804 586.786 172.775C593.245 166.426 593.448 155.438 594.025 147C595.345 127.672 596.464 107.299 594.155 88C593.23 80.2677 592.709 71.0248 586.787 65.2245C579.618 58.2027 565.183 61 556 61M112.318 70.0316C108.178 72.7192 110.443 80.3654 111.88 83.9807C112.579 85.7376 114.071 89.1387 116.556 87.8241C120.328 85.8283 121.996 75.825 120.396 72.2284C119.114 69.3476 114.936 68.3321 112.318 70.0316M70 94L76 94C76.2384 82.8086 83.1071 76.4752 94 75L94 70C84.3947 70.0011 74.1773 71.2418 70.804 82C69.6079 85.8146 70 90.055 70 94M137 70L137 75C147.884 77.118 154.75 82.2792 155 94L161 94C161 90.04 161.363 85.8376 160.2 82.0008C157.002 71.45 146.453 70.001 137 70M44 91L55 87C53.5075 83.2614 51.636 80.0239 51 76C41.9745 77.0058 39.8787 83.6338 44 91M182 77C180.109 80.2397 178.442 83.5368 177 87C179.591 88.2649 183.858 91.4673 186.852 90.554C190.905 89.3177 190.333 82.9303 188.259 80.3032C186.697 78.3242 184.283 77.722 182 77M81 95C84.8896 95.805 94.2276 100.368 97.3032 96.5918C100.119 93.135 95.5497 84.0786 95 80C85.9852 81.2209 81.2179 85.732 81 95M150 95C149.95 92.6536 149.946 90.2954 149.196 88.0386C148.663 86.4337 147.863 84.9835 146.581 83.8542C139.892 77.96 135.839 82.4806 133.965 89C133.073 92.1028 131.472 97.0743 136.062 98.0679C140.081 98.9377 145.857 95.5606 150 95M477 83C475.82 97.823 470.903 112.267 469 127L489 127C486.018 112.555 481.171 97.7112 480 83L477 83M64 139C63.0931 133.635 57.9594 131.614 55.4174 126.996C49.6035 116.435 52.9582 100.096 65 96L65 92C61.3685 92.0004 57.4927 91.6729 54 92.8542C46.157 95.5069 37.127 106.497 36.6026 115C36.4106 118.113 38.2313 121.315 39.6057 124C44.9362 134.415 52.6099 138.992 64 139M166 96C185.248 102.548 179.647 127.321 166 136C172.064 144.409 184.089 134.747 188.211 129C190.696 125.536 194.086 120.363 194.4 116C194.84 109.88 189.233 102.338 185.242 98.2099C181.105 93.9297 168.813 87.5235 166 96M110 95.5324C84.0206 101.72 95.295 142.279 121 135.387C146.833 128.46 135.87 89.3709 110 95.5324M92 128L91 123C84.3225 123.899 75.5501 128.285 69.044 124.821C60.9471 120.51 62.2676 108.11 71.0039 105.573C77.8635 103.58 84.3144 107.334 91 108L92 103C84.0678 101.186 72.8431 97.2189 65.0046 101.318C55.4328 106.323 55.1605 124.732 65.0154 129.682C73.2782 133.832 83.7051 129.405 92 128M139 103L140 108C146.253 107.157 152.608 103.929 158.999 105.394C168.1 107.482 170.573 119.949 161.956 124.543C155.019 128.242 147.028 124.034 140 123L139 127C146.572 130.801 160.472 134.051 167.892 128.347C175.71 122.338 175.042 105.861 165.985 101.318C157.837 97.2311 147.178 101.307 139 103z"/>
<path style="fill:#a354b6; stroke:none;" d="M114 104.707C100.049 106.578 103.277 128.536 117 126.373C130.958 124.172 127.951 102.835 114 104.707z"/>
<path style="fill:#fffeff; stroke:none;" d="M72.1481 110.743C68.2245 112.496 68.1824 118.516 72.1481 120.254C75.7855 121.848 82.4984 120.174 85.8472 118.349C88.7216 116.782 88.6114 114.188 85.8472 112.568C82.4357 110.569 75.9033 109.066 72.1481 110.743M113.228 110.758C107.1 113.403 111.481 122.959 117.772 120.242C123.9 117.597 119.519 108.041 113.228 110.758M142 114C143.783 119.52 155.673 123.893 160.397 119.258C162.901 116.799 162.047 111.981 158.852 110.604C156.191 109.457 152.682 110.232 150 110.903C147.185 111.607 144.617 112.777 142 114M81 136C81.085 145.393 85.6074 149.915 95 150C95.814 146.067 100.521 136.745 96.642 133.697C93.1724 130.97 84.8927 135.194 81 136M136 150C145.322 149.896 149.916 145.274 150 136C145.948 135.402 136.82 130.383 133.697 134.358C130.892 137.927 135.404 145.963 136 150M70 137C70.0061 146.266 71.6553 157.103 82 160.347C85.7495 161.523 90.1184 161 94 161L94 155C82.34 154.894 77.0957 147.77 75 137L70 137M155 137C154.766 147.993 147.959 154.902 137 156L137 161C146.446 160.994 156.898 159.515 160.196 149C161.392 145.186 161 140.945 161 137L155 137M44 139C42.1792 141.534 40.7714 143.703 41.4136 146.985C42.0814 150.397 45.6792 154.362 49.3665 151.957C51.8674 150.326 53.0371 146.643 54 144L44 139M103 139C100.771 146.912 97.0144 159.314 101.858 166.956C107.37 175.653 124.973 175.36 129.682 165.985C133.772 157.842 129.692 147.175 128 139L123 140C124.027 146.955 128.441 155.057 124.682 161.957C120.415 169.791 107.914 168.814 105.434 159.985C103.523 153.184 107.028 146.58 108 140L103 139M176 144C177.175 146.743 178.801 152.346 181.549 153.863C187.714 157.268 193.769 142.792 185.811 141.016C182.811 140.347 178.792 143.035 176 144M114 141C112.313 146.175 107.65 154.4 111.179 159.682C113.647 163.376 119.403 161.835 120.562 157.891C122.136 152.542 118.625 145.994 117 141L114 141M87 166C74.8886 165.715 65.6169 156.019 65 144C56.0589 146.517 52.7147 157.457 53.1042 166C53.2323 168.811 53.5611 173.085 55.7384 175.142C58.0596 177.335 62.063 176.998 65 176.998C72.9296 176.998 84.4687 174.605 87 166M167 144C162.616 156.841 157.362 163.133 144 167C150.611 179.629 164.112 177.51 176 177C177.961 166.438 178.248 149.532 167 144M92 166C92.0004 169.631 91.6729 173.507 92.8542 177C95.5333 184.921 106.372 193.995 115 194.408C118.198 194.561 121.253 192.649 124 191.243C134.439 185.9 138.992 178.473 139 167C133.747 167.9 131.574 173.081 126.999 175.583C116.299 181.435 100.221 178.408 96 166L92 166M86 176C82.8108 178.269 79.7651 179.913 76 181C76.7066 183.913 77.4323 186.904 80.2245 188.539C83.1522 190.254 89.2541 189.875 90.1227 185.786C90.787 182.659 87.7803 178.343 86 176M144 177C142.73 179.602 139.632 183.719 140.16 186.721C140.84 190.581 147.353 190.266 149.856 188.82C152.737 187.156 153.347 183.985 154 181C150.426 180.182 147.36 178.439 144 177z"/>
</svg>
